X: 95
T: Rattigan's
B: begged borrowed and stolen
M:4/4
L:1/8
R: reel
Q: 1/4=100
K:Gmaj
V:1 
(3DEF|:"G"G2BG DGBd|g2fg "D"edBA|"G"G2BG DGBG|"C"ABAG "D"FDEF|
 "G"(3GFE (3FED "Em"EDB,A,|"G"G,gfg "D"edBA|"D"G2BG "C"DGBG|1"D"AGFA "G"G2 (3DEF :|2"D"AGFA "G"G2 Bc||
|:"G"dggf gfed|"C"eaag a2eg|"D"fdad bdag|fdaf gfed|
"G"BG~G2 EGDE|"D"G2fg edBA|"G"G2BG DGBG|1 "C"AGFA "G"G2:Bc:|2 "C"AGFA "G"G4||
% abcbook-tune_id 62828e90a51010c7a7da154c


% abcbook-boost 0
% abcbook-tablature 
% abcbook-transpose 
% abcbook-lastupdated 1652725431138
% abcbook-soundfonts 
% abcbook-repeats 3


